!!!COM:	Josquin des Pres
**kern	**kern
*part2	*part1
*staff2	*staff1
*clefGv2	*clefGv2
*k[]	*k[]
*M2/1	*M2/1
=1-	=1-
0D	2.d
.	4e
.	2f
.	2d
=2	=2
0C	2f
.	1e
.	4d
.	4c
=3	=3
0D	2B
.	2A
.	2B
.	[2A
=4	=4
0C	2A]
.	4G
.	4F
.	2E
.	[2A
=5	=5
0D	4A]
.	4F
.	2B-X
.	2A
.	2d
=6	=6
0F	4D
.	4E
.	4F
.	4G
.	4A
.	4Bn
.	4c
.	4d
=7	=7
0E	4e
.	4c
.	2.d
.	4c
.	4c
.	4B
=8	=8
0D	0d
==	==
*-	*-
